!!!!SEGMENT: pl-kk--kk-i-387--003_anonim--alleluia-post-partum-virgo.krn
!!!cenid: 18xx:1417
!!!COM: Anonim
!!!COM-rism: pe30004985
!!!CDT:
!!!CNT:
!!!OTL: Alleluia Post partum virgo
!!!PDT:
!!!AGN: Sacred
!!!SMS-siglum: PL-Kk
!!!SMS-shelfmark: Kk.I.387
!!!NIFC-rismID: 1001138217
!!!URL-scan: http://repozytorium.nifc.pl/skany/pl-kk-nut--i-387
!!!ONB-nifc: Uwaga: No. 3
!!!SMS-variant:
!!!SMS-altvar:
**kern	**text	**kern	**text	**kern	**text	**kern	**text
*part4	*part4	*part3	*part3	*part2	*part2	*part1	*part1
*staff4	*staff4	*staff3	*staff3	*staff2	*staff2	*staff1	*staff1
*I"Basso.	*	*I"Tenore.	*	*I"Alto.	*	*I"Soprano.	*
*I'B	*	*I'T	*	*I'A	*	*I'S	*
*group1	*	*group1	*	*group1	*	*group1	*
*clefF4	*	*clefC4	*	*clefC3	*	*clefC1	*
*k[b-]	*	*k[b-]	*	*k[b-]	*	*k[b-]	*
*M3/2	*	*M3/2	*	*M3/2	*	*M3/2	*
=1	=1	=1	=1	=1	=1	=1	=1
*	*	*2\right	*	*	*	*2\right	*
!	!	!LO:TX:a:t=Graduale. Tenore.	!	!LO:TX:a:t=Alto. Graduale.	!	!LO:TX:a:t=Sopran. Graduale.	!
!LO:TX:a:t=5.	!	!	!	!LO:TX:a:t=3.	!	!LO:TX:t=P:problem:all\right:global	!
!LO:TX:t=P:problem:all\right:global	!	!LO:TX:t=P:problem:all\right:global	!	!LO:TX:t=P:problem:all\right:global	!	!	!
00.r	.	2r	.	0.r	.	2r	.
.	.	2F/	Al-	.	.	2a\	Al-
.	.	2G/	-le-	.	.	2b-\	-le-
=2	=2	=2	=2	=2	=2	=2	=2
.	.	2.A/	-lu-	.	.	2.cc\	-lu-
.	.	4G/	.	.	.	4b-\	.
.	.	2F/	-ia	.	.	2a\	-ia
=3	=3	=3	=3	=3-zz	=3	=3	=3
.	.	2B-\	Al-	1.r	.	2dd\	Al-
.	.	2A\	.	.	.	2cc\	.
.	.	2G/	-le-	.	.	2b-\	-le-
=4	=4	=4	=4	=4	=4	=4	=4
*	*	*	*	*2\right	*	*	*
.	.	2A/	-lu-	2r	.	2cc\	-lu-
.	.	2F/	-ia	2r	.	2a\	-ia
.	.	2d\	al-	2f\	Al-	(2bn\	al-
=5	=5	=5	=5	=5	=5	=5	=5
1.r	.	2c\	-le-	2e\	-le-	2cc\)	.
.	.	1G	-lu-	1d	-lu-	2cc\	-le-
.	.	.	.	.	.	2bn\	-lu-
=6	=6	=6	=6	=6	=6	=6	=6
*2\right	*	*	*	*	*	*	*
2r	.	2c\	-ia,	2e\	-ia,	2cc\	-ia
2C/	Al-	2r	.	2e\	al-	2r	.
2D/	-le-	2r	.	2f\	-le-	2r	.
!	!	!LO:LB:g=original	!	!	!	!LO:LB:g=original	!
=7	=7	=7	=7	=7	=7	=7	=7
!	!	!LO:TX:a:t=4.	!	!	!	!LO:TX:a:t=2.	!
!	!	!LO:N:vis=00	!	!	!	!LO:N:vis=0	!
2.E\	-lu-	00.r	.	2.g\	-lu-	0.r	.
4D\	.	.	.	4f\	.	.	.
2C/	-ia	.	.	2e\	-ia	.	.
=8	=8	=8	=8	=8	=8	=8	=8
2F\	Al-	.	.	2a\	al-	.	.
2E\	.	.	.	2g\	.	.	.
2D\	-le-	.	.	2f\	-le-	.	.
=9	=9	=9	=9	=9	=9	=9	=9
2E\	-lu-	.	.	2g\	-lu-	2r	.
!	!	!	!	!LO:LB:g=original	!	!	!
2C/	-ia	.	.	2e\	-ia,	2r	.
2A\	al-	.	.	2e\	al-	2cc\	Al-
=10	=10	=10	=10	=10	=10	=10	=10
2F\	-le-	.	.	1d	-le-	1cc	-le-
2G\	.	.	.	.	.	.	.
2GG/	-lu-	.	.	2d\	-lu-	2bn\	-lu-
!LO:LB:g=original	!	!	!	!	!	!	!
=11	=11	=11	=11	=11	=11	=11	=11
2C/	-ia	2r	.	2e\	-ia,	2cc\	-ia
2c\	al-	2c\	Al-	2e\	al-	2g\	al-
2B-\	-le-	2c\	-le-	2e\	-le-	2g\	-le-
=12	=12	=12	=12	=12	=12	=12	=12
2.A\	-lu-	2.c\	-lu-	1f	-lu-	2.a\	-lu-
!	!	!	!	!	!	!LO:SIC:s=4b-:v	!
4G\	.	4B-\	.	.	.	4bn\	.
2F\	-ia	2A\	-ia	2f\	-ia,	2cc\	-ia,
=13	=13	=13	=13	=13	=13	=13	=13
!	!	!	!	!LO:TX:a:t=3.	!	!	!
1.F	al-	2A/	Al-	0.r	.	2cc\	al-
.	.	2G/	.	.	.	2b-X\	.
.	.	2F/	-le-	.	.	2a\	-le-
=14	=14	=14	=14	=14	=14	=14	=14
1.F	.	2B-\	-lu-	.	.	2dd\	-lu-
.	.	2A\	.	.	.	2cc\	.
.	.	2G/	-ia,	.	.	2b-\	-ia
!	!	!	!	!	!	!LO:LB:g=original	!
=15	=15	=15	=15	=15	=15	=15	=15
1.F	.	2A\	Al-	1.r	.	2cc\	al-
.	.	2G/	.	.	.	2b-\	.
.	.	2F/	.	.	.	2a\	.
!	!	!LO:LB:g=original	!	!	!	!	!
=16	=16	=16	=16	=16	=16	=16	=16
2B-\	-le-	2d\	-le-	2f\	al-	2g\	-le-
2c\	.	1c	-lu-	2f\	-le-	1g	-lu-
2C/	-lu-	.	.	2e\	-lu-	.	.
=17	=17	=17	=17	=17	=17	=17	=17
2F,\	-ia,	2c,\	-ia,	2f,\	-ia,	2a,\	-ia,
2D/	Post	2d\	Post	(2f\	Post	1a	Post
2AA/	.	2c#X\	.	2e\)	.	.	.
!LO:LB:g=original	!	!	!	!LO:LB:g=original	!	!	!
=18	=18	=18	=18	=18	=18	=18	=18
!	!	!	!	!LO:SIC:s=2d:v	!	!	!
1F	par-	2A\	par-	2e\	par-	2a\	par-
.	.	1A	-tum	2d\	.	1ff	-tum
2D\	-tum	.	.	2f\	-tum	.	.
=19	=19	=19	=19	=19	=19	=19	=19
2G\	Vir-	2B-X\	Vir-	2g\	Vir-	2ee\	Vir-
1A	-go	1A	-go	1e	-go	1cc#X	-go
=20	=20	=20	=20	=20	=20	=20	=20
!LO:TX:a:t=3.	!	!	!	!	!	!	!
0.r	.	2F/	in-	2f\	in-	2a\	in-
.	.	2A\	-vi-	2f\	-vi-	2ccn\	-vi-
.	.	2F/	-o-	2f\	-o-	2a\	-o-
!	!	!	!	!	!	!LO:LB:g=original	!
=21	=21	=21	=21	=21	=21	=21	=21
.	.	2c\	-la-	2e\	-la-	2g\	-la-
.	.	2B-X\	-ta	2e\	-ta	2g\	-ta,
.	.	2A\	per-	2f\	per-	2cc\	per-
!	!	!LO:LB:g=original	!	!	!	!	!
=22	=22	=22	=22	=22	=22	=22	=22
1.r	.	2B-X\	-man-	2f\	-man-	(4b-\	-man-
.	.	.	.	.	.	4a\)	.
.	.	1c	-si-	2f\	-si-	1g	-si-
.	.	.	.	2e\	.	.	.
=23	=23	=23	=23	=23	=23	=23	=23
2r	.	2F/	-sti	2f\	-sti,	2a\	-sti,
2F\	Vir-	2c\	Vir-	2f\	Vir-	2a\	Vir-
2D\	-go	2d\	-go	2f\	-go	2bn\	-go
!	!	!	!	!LO:LB:g=original	!	!	!
=24	=24	=24	=24	=24	=24	=24	=24
2C/	in-	2G/	in-	2e\	in-	2cc\	in-
2E\	-vi-	2G/	-vi-	2e\	-vi-	2cc\	-vi-
2C/	-o-	2G/	-o-	2e\	-o-	2cc\	-o-
=25	=25	=25	=25	=25	=25	=25	=25
2G\	-la-	2G/	-la-	2d\	-la-	2bn\	-la-
2F\	-ta	2G/	-ta	2d\	-ta	2b\	-ta,
2E\	per-	2G/	per-	2g\	per-	2cc\	per-
=26	=26	=26	=26	=26	=26	=26	=26
2F\	-man-	2A\	-man-	(4f\	-man-	2cc\	-man-
.	.	.	.	4e\)	.	.	.
!	!	!	!	!	!	!LO:LB:g=original	!
2G\	-si-	1G	-si-	1d	-si-	2cc\	-si-
2GG/	.	.	.	.	.	2bn\	.
!LO:LB:g=original	!	!	!	!	!	!	!
=27	=27	=27	=27	=27	=27	=27	=27
2C/	-sti	2G/	-sti	2e\	-sti,	2cc\	-sti,
4A\	per-	2c\	per-	2e\	per-	2ee\	per-
4G\	.	.	.	.	.	.	.
4F\	.	2A\	-man-	2f\	-man-	2ff\	.
4E\	.	.	.	.	.	.	.
!	!	!LO:LB:g=original	!	!	!	!	!
=28	=28	=28	=28	=28	=28	=28	=28
2D\	-man-	1A	-si-	2f\	-si-	4dd\	-man-
.	.	.	.	.	.	4cc\	.
1E	-si-	.	.	1e	.	1bn	-si-
.	.	2G#X/	.	.	.	.	.
=29	=29	=29	=29	=29	=29	=29	=29
2AA/	-sti	2A\	-sti,	2e\	-sti,	2a\	-sti
2r	.	2c\	De-	2r	.	2a\	De-
2r	.	2d\	-i	2r	.	2bn\	-i
!	!	!	!	!LO:LB:g=original	!	!	!
=30	=30	=30	=30	=30	=30	=30	=30
!LO:TX:a:t=2.	!	!	!	!LO:TX:a:t=2	!	!	!
0.r	.	2.e\	Ge-	0.r	.	2.cc\	Ge-
.	.	4d\	-ni-	.	.	4bn\	-ni-
.	.	2c\	-trix	.	.	2a\	-trix
=31	=31	=31	=31	=31	=31	=31	=31
.	.	2f\	in-	.	.	2dd\	in-
.	.	2e\	.	.	.	2cc\	.
.	.	2d\	-ter-	.	.	2bn\	-ter-
!	!	!	!	!	!	!LO:LB:g=original	!
=32	=32	=32	=32	=32	=32	=32	=32
2r	.	2e\	-ce-	2r	.	2cc\	-ce-
2r	.	2c\	-de,	2r	.	2a\	-de,
2c\	in-	2G/	in-	2e\	in-	2cc\	in-
=33	=33	=33	=33	=33	=33	=33	=33
2G\	-ter-	2G/	-ter-	2d\	-ter-	2bn\	-ter-
2c\	-ce-	2G/	-ce-	2e\	-ce-	2cc\	-ce-
2E\	-de	2G/	-de	2g\	-de	2cc\	-de
!	!	!LO:LB:g=original	!	!	!	!	!
=34	=34	=34	=34	=34	=34	=34	=34
2F\	pro	2A/	pro	4f\	pro	2cc\	pro
.	.	.	.	4e\	.	.	.
2G\	no-	1G	no-	1d	no-	2cc\	no-
2GG/	.	.	.	.	.	2bn\	.
!LO:LB:g=original	!	!	!	!	!	!	!
=35	=35	=35	=35	=35	=35	=35	=35
2C/	-bis,	2G/	-bis,	2e\	-bis	2cc\	-bis
2c\	De-	2G/	De-	2e\	De-	2cc\	De-
2B-\	-i	2G/	-i	2e\	-i	2cc\	-i
=36	=36	=36	=36	=36	=36	=36	=36
1A	Ge-	1A	Ge-	1.f	Ge-	1cc	De-
2B-\	.	2F/	.	.	.	2dd\	-i
=37	=37	=37	=37	=37	=37	=37	=37
2.G\	.	2.G/	.	2.e\	.	2.b-X\	Ge-
4G\	-ni-	4G/	-ni-	4e\	-ni-	4b-\	-ni-
2F\	-trix	2A/	-trix	2f\	-trix	2cc\	-trix
!	!	!	!	!LO:LB:g=original	!	!LO:LB:g=original	!
=38	=38	=38	=38	=38	=38	=38	=38
2B-\	Ge-	(2d\	Ge-	1f	Ge-	4b-X\	Ge-
.	.	.	.	.	.	4a\	.
2c\	.	2c\)	.	.	.	2.g\	.
2C/	-ni-	2c\	-ni-	2e\	-ni-	.	.
.	.	.	.	.	.	4g\	-ni-
=39	=39	=39	=39	=39	=39	=39	=39
2F\	-trix	2c\	-trix,	2f\	-trix,	2a\	-trix,
2F\	in-	2c\	in-	2f\	in-	2a\	in-
2F\	-ter-	2c\	-ter-	2f\	-ter-	2a\	-ter-
!	!	!LO:LB:g=original	!	!	!	!	!
=40	=40	=40	=40	=40	=40	=40	=40
2F\	-ce-	2d\	-ce-	2f\	-ce-	2b-X\	-ce-
2F\	-de	2d\	-de	2f\	-de	2b-\	-de
2F\	pro	2c\	pro	2f\	pro	2a\	pro
!LO:LB:g=original	!	!	!	!	!	!	!
=41	=41	=41	=41	=41	=41	=41	=41
1.F	no-	1.d	no-	1.f	no-	1.b-X	no-
=42	=42	=42	=42	=42	=42	=42	=42
1.F	-bis.	1.c	-bis.	1.f	-bis.	1.a	-bis.
!LO:TX:a:t=Alleluia Da Capo.	!	!LO:TX:a:t=Alleluia Da Capo.	!	!LO:TX:a:t=Alleluia Da Capo.	!	!LO:TX:a:t=Alleluia Da Capo.	!
==	==	==	==	==	==	==	==
*-	*-	*-	*-	*-	*-	*-	*-
!!!system-decoration: [(g1)]
!!!ENC:Anna Matuszewska
!!!END:2021-01-16
!!!ENC:Krzysztof Stępień
!!!END:2021-01-12
